X:1
T:High-Toned Southern Gentleman
M:4/4
L:1/8
K:D
 D| DD DD DD DD| ED CD E3 E| EE EE EE EE| FE DE F3| F| FF FF FF FF|\
 GF EF G3 G| GG GG GG GG| AG FG A3| D| Dd cB A3/2 G/2 FA| A3/2 A/2 GE D3||\
